@stellar/design-system/src/assets/logos/freighter.svg

<svg width="18" height="24" viewBox="0 0 18 24" xmlns="http://www.w3.org/2000/svg">
<g clip-path="url(#clip0_1140_1885)">
<path d="M16.0332 17.2866C15.6145 16.9013 15.1341 16.516 14.6034 16.1381C13.9839 14.1023 12.321 12.517 10.238 11.9935V9.17255H12.8045V6.19793H10.238V5.06693H14.3192V2.09234H10.238V0H7.25383V11.9935C6.89385 12.0841 6.54644 12.2062 6.21507 12.3573C5.62265 12.2207 5.05482 12.1211 4.52264 12.0631C2.03546 11.7918 1.17043 12.4869 0.88225 13.1175C0.59407 13.7485 0.636746 14.8555 2.47476 16.547C2.55812 16.624 2.64446 16.7006 2.73232 16.7772C2.66404 17.1415 2.62739 17.5173 2.62739 17.9012C2.62739 21.2641 5.37213 24 8.74591 24C10.6758 24 12.3993 23.1047 13.5215 21.71C13.6786 21.733 13.8337 21.754 13.9849 21.7705C14.3649 21.8121 14.7068 21.8311 15.015 21.8311C16.7225 21.8311 17.3812 21.2506 17.6252 20.7161C17.914 20.0851 17.8713 18.9781 16.0332 17.2866L16.0332 17.2866ZM8.74593 14.7774C10.474 14.7774 11.8802 16.1792 11.8802 17.9017C11.8802 18.7834 11.5113 19.5806 10.9193 20.1491C10.0523 19.8704 9.1521 19.5221 8.2504 19.1132C7.31106 18.6869 6.42291 18.2189 5.61662 17.7285C5.70748 16.0861 7.07609 14.7774 8.74591 14.7774L8.74593 14.7774ZM1.71666 13.4963C1.88133 13.136 2.51392 12.9203 3.50548 12.9203C3.94928 12.9203 4.4654 12.9638 5.04277 13.0564C4.12702 13.7515 3.41309 14.6974 3.00594 15.7913C1.99581 14.8385 1.50278 13.9642 1.71666 13.4963ZM8.74593 21.0254C7.35977 21.0254 6.18144 20.1236 5.76925 18.8775C6.43196 19.2528 7.13684 19.6117 7.87084 19.9445C8.5682 20.2607 9.26555 20.542 9.94986 20.7852C9.57884 20.9398 9.17218 21.0254 8.74593 21.0254ZM16.7914 20.3373C16.572 20.8182 15.5382 21.0194 14.0938 20.8628C14.5849 19.9855 14.8655 18.9756 14.8655 17.9012C14.8655 17.757 14.86 17.6144 14.8504 17.4733C15.0487 17.6344 15.2365 17.7961 15.4117 17.9577C16.4826 18.9441 17.0113 19.8559 16.7914 20.3373Z" fill="#6969F2"/>
</g>
<defs>
<clipPath id="clip0_1140_1885">
<rect width="17" height="24" fill="white" transform="translate(0.75)"/>
</clipPath>
</defs>
</svg>

<svg xmlns="http://www.w3.org/2000/svg" width="18" height="24"><g clip-path="url(#a)"><path fill="#6969F2" d="M16.033 17.287a14.682 14.682 0 0 0-1.43-1.149 6.134 6.134 0 0 0-4.365-4.145v-2.82h2.567V6.198h-2.567V5.067h4.081V2.092h-4.081V0H7.254v11.993a6.08 6.08 0 0 0-1.039.364 14.652 14.652 0 0 0-1.692-.294c-2.488-.271-3.353.424-3.64 1.054-.289.631-.246 1.738 1.592 3.43.083.077.17.154.257.23-.068.364-.105.74-.105 1.124C2.627 21.264 5.372 24 8.746 24c1.93 0 3.653-.895 4.775-2.29.158.023.313.044.464.06a9.4 9.4 0 0 0 1.03.061c1.707 0 2.366-.58 2.61-1.115.289-.63.246-1.738-1.592-3.43Zm-7.287-2.51a3.133 3.133 0 0 1 3.134 3.125 3.11 3.11 0 0 1-.96 2.247 25.115 25.115 0 0 1-2.67-1.036 24.885 24.885 0 0 1-2.633-1.384 3.134 3.134 0 0 1 3.129-2.952Zm-7.03-1.28c.165-.361.798-.577 1.79-.577.443 0 .96.044 1.537.136a6.12 6.12 0 0 0-2.037 2.735c-1.01-.953-1.503-1.827-1.29-2.295Zm7.03 7.528a3.138 3.138 0 0 1-2.977-2.147 26.708 26.708 0 0 0 4.18 1.908c-.37.154-.777.24-1.203.24Zm8.045-.688c-.219.481-1.253.682-2.697.526a6.045 6.045 0 0 0 .756-3.39c.199.161.386.323.562.485 1.07.986 1.6 1.898 1.38 2.38Z"/></g><defs><clipPath id="a"><path d="M.75 0h17v24h-17z"/></clipPath></defs></svg>
